;FLAVOR:Marlin
;TIME:2612
;Filament used: 1.72434m
;Layer height: 0.2
;MINX:64.9
;MINY:98.9
;MINZ:0.3
;MAXX:155.1
;MAXY:121.1
;MAXZ:10.1
;Generated with Cura_SteamEngine 5.0.0
M140 S60
M105
M190 S60
M104 S200
M105
M109 S200
M82 ;absolute extrusion mode
G28 ;Home
G1 Z15.0 F2000 ;Move the platform
G92 E0
G92 E0
G1 F1500 E-6.5
;LAYER_COUNT:50
;LAYER:0
M107
M204 S1000
G0 F7500 X69.264 Y100.943 Z0.3
G0 X64.9 Y110.152
;TYPE:SKIRT
G1 F1500 E0
G1 X64.911 Y109.434 E0.03583
G1 X64.943 Y109.011 E0.05699
G1 X65.008 Y108.535 E0.08096
G1 X65.188 Y107.407 E0.13795
G1 X65.304 Y106.736 E0.17192
G1 X65.434 Y106.216 E0.19866
G1 X65.618 Y105.765 E0.22296
G1 X65.998 Y104.992 E0.26593
G1 X66.724 Y103.599 E0.3443
G1 X67.026 Y103.156 E0.37105
G1 X67.258 Y102.892 E0.38859
G1 X67.857 Y102.275 E0.43149
G1 X68.855 Y101.29 E0.50145
G1 X69.264 Y100.943 E0.5282
G1 X69.7 Y100.67 E0.55387
G1 X70.476 Y100.261 E0.59763
G1 X71.719 Y99.638 E0.667
G1 X72.215 Y99.434 E0.69376
G1 X72.715 Y99.309 E0.71947
G1 X73.56 Y99.163 E0.76225
G1 X74.293 Y99.046 E0.79928
G1 X74.99 Y98.946 E0.83441
G1 X75.422 Y98.911 E0.85604
G1 X75.955 Y98.9 E0.88263
G1 X143.848 Y98.9 E4.26983
G1 X144.565 Y98.911 E4.3056
G1 X144.987 Y98.943 E4.32672
G1 X145.465 Y99.008 E4.35078
G1 X146.593 Y99.188 E4.40777
G1 X147.264 Y99.304 E4.44175
G1 X147.784 Y99.434 E4.46849
G1 X148.233 Y99.617 E4.49268
G1 X149.009 Y99.998 E4.53581
G1 X150.361 Y100.701 E4.61183
G1 X150.808 Y100.997 E4.63858
G1 X151.107 Y101.256 E4.65831
G1 X151.71 Y101.842 E4.70026
G1 X152.71 Y102.855 E4.77128
G1 X153.057 Y103.264 E4.79804
G1 X153.33 Y103.699 E4.82366
G1 X153.725 Y104.448 E4.86591
G1 X154.362 Y105.718 E4.93679
G1 X154.566 Y106.214 E4.96355
G1 X154.69 Y106.713 E4.9892
G1 X154.833 Y107.534 E5.03078
G1 X154.953 Y108.291 E5.06901
G1 X155.053 Y108.986 E5.10405
G1 X155.089 Y109.42 E5.12577
G1 X155.1 Y109.955 E5.15247
G1 X155.099 Y112.367 E5.2728
G1 X155.084 Y113.101 E5.30943
G1 X155.023 Y113.695 E5.33922
G1 X154.824 Y114.743 E5.39244
G1 X154.669 Y115.469 E5.42948
G1 X154.518 Y115.983 E5.4562
G1 X154.176 Y116.664 E5.49422
G1 X153.797 Y117.25 E5.52904
G1 X153.15 Y118.2 E5.58638
G1 X152.816 Y118.62 E5.61316
G1 X152.224 Y119.134 E5.65227
G1 X151.645 Y119.534 E5.68738
G1 X150.693 Y120.158 E5.74417
G1 X150.223 Y120.418 E5.77097
G1 X149.48 Y120.666 E5.81004
G1 X148.772 Y120.817 E5.84616
G1 X147.66 Y121.027 E5.90262
G1 X147.047 Y121.09 E5.93336
G1 X146.39 Y121.1 E5.96615
G1 X73.633 Y121.099 E9.59601
G1 X72.899 Y121.084 E9.63263
G1 X72.305 Y121.023 E9.66242
G1 X71.258 Y120.824 E9.71559
G1 X70.531 Y120.669 E9.75268
G1 X70.017 Y120.518 E9.77941
G1 X69.312 Y120.161 E9.81883
G1 X68.368 Y119.542 E9.87515
G1 X67.781 Y119.137 E9.91073
G1 X67.363 Y118.801 E9.93749
G1 X66.863 Y118.22 E9.97573
G1 X66.45 Y117.621 E10.01203
G1 X65.837 Y116.684 E10.06789
G1 X65.578 Y116.214 E10.09466
G1 X65.391 Y115.712 E10.12139
G1 X65.325 Y115.446 E10.13506
G1 X65.105 Y114.38 E10.18937
G1 X64.965 Y113.602 E10.2288
G1 X64.908 Y113.01 E10.25848
G1 X64.9 Y112.381 E10.28986
G1 X64.9 Y110.152 E10.40106
G0 F7500 X65.3 Y110.158
G1 F1500 X65.311 Y109.44 E10.43689
G1 X65.339 Y109.064 E10.4557
G1 X65.403 Y108.598 E10.47917
G1 X65.582 Y107.475 E10.5359
G1 X65.698 Y106.804 E10.56987
G1 X65.823 Y106.314 E10.5951
G1 X65.977 Y105.941 E10.61524
G1 X66.353 Y105.176 E10.65776
G1 X67.07 Y103.799 E10.73522
G1 X67.357 Y103.382 E10.76047
G1 X67.545 Y103.17 E10.77461
G1 X68.138 Y102.559 E10.81709
G1 X69.136 Y101.574 E10.88705
G1 X69.523 Y101.249 E10.91226
G1 X69.887 Y101.023 E10.93363
G1 X70.655 Y100.618 E10.97695
G1 X71.898 Y99.995 E11.04632
G1 X72.367 Y99.805 E11.07156
G1 X72.783 Y99.703 E11.09293
G1 X73.622 Y99.558 E11.13541
G1 X74.35 Y99.442 E11.17219
G1 X75.047 Y99.342 E11.20732
G1 X75.431 Y99.311 E11.22654
G1 X75.955 Y99.3 E11.25269
G1 X143.842 Y99.3 E14.63958
G1 X144.559 Y99.311 E14.67536
G1 X144.934 Y99.339 E14.69412
G1 X145.402 Y99.403 E14.71769
G1 X146.525 Y99.582 E14.77442
G1 X147.196 Y99.698 E14.80839
G1 X147.686 Y99.823 E14.83362
G1 X148.057 Y99.977 E14.85366
G1 X148.825 Y100.353 E14.89632
G1 X150.166 Y101.05 E14.97172
G1 X150.586 Y101.331 E14.99693
G1 X150.829 Y101.544 E15.01306
G1 X151.425 Y102.123 E15.05451
G1 X152.425 Y103.136 E15.12553
G1 X152.751 Y103.523 E15.15077
G1 X152.976 Y103.887 E15.17212
G1 X153.367 Y104.627 E15.21388
G1 X154.004 Y105.897 E15.28476
G1 X154.195 Y106.366 E15.31002
G1 X154.296 Y106.782 E15.33138
G1 X154.438 Y107.597 E15.37265
G1 X154.557 Y108.348 E15.41059
G1 X154.657 Y109.043 E15.44562
G1 X154.689 Y109.429 E15.46494
G1 X154.7 Y109.955 E15.49119
G1 X154.699 Y112.358 E15.61108
G1 X154.684 Y113.092 E15.64771
G1 X154.629 Y113.621 E15.67424
G1 X154.432 Y114.659 E15.72695
G1 X154.277 Y115.385 E15.76399
G1 X154.133 Y115.87 E15.78923
G1 X153.84 Y116.448 E15.82156
G1 X153.467 Y117.025 E15.85584
G1 X152.82 Y117.975 E15.91318
G1 X152.503 Y118.369 E15.93841
G1 X151.997 Y118.805 E15.97173
G1 X151.425 Y119.199 E16.00638
G1 X150.473 Y119.823 E16.06317
G1 X150.03 Y120.066 E16.08838
G1 X149.395 Y120.275 E16.12173
G1 X148.698 Y120.424 E16.15729
G1 X147.586 Y120.634 E16.21375
G1 X147.041 Y120.69 E16.24108
G1 X146.384 Y120.7 E16.27386
G1 X73.642 Y120.699 E19.90298
G1 X72.908 Y120.684 E19.93961
G1 X72.379 Y120.629 E19.96614
G1 X71.342 Y120.433 E20.01879
G1 X70.615 Y120.278 E20.05588
G1 X70.13 Y120.134 E20.08112
G1 X69.53 Y119.826 E20.11477
G1 X68.595 Y119.213 E20.17054
G1 X68.008 Y118.808 E20.20612
G1 X67.616 Y118.489 E20.23134
G1 X67.192 Y117.993 E20.26389
G1 X66.785 Y117.402 E20.29969
G1 X66.172 Y116.465 E20.35556
G1 X65.93 Y116.021 E20.38078
G1 X65.717 Y115.365 E20.41519
G1 X65.499 Y114.309 E20.46899
G1 X65.359 Y113.531 E20.50843
G1 X65.308 Y113.005 E20.53479
G1 X65.3 Y112.376 E20.56618
G1 X65.3 Y110.158 E20.67683
G1 F1500 E14.17683
;MESH:Porte_plaque_aimant_V2.stl
G0 F7500 X70.546 Y111.872
G0 X70.424 Y113
G0 X70.916 Y114.514
G0 X72.204 Y115.45
G0 X73.492 Y115.45
G0 X73.976 Y115.395
G1 F1500 E20.67683
G0 F7500 X73.737 Y115.064
;TYPE:WALL-OUTER
G1 F1500 X73.619 Y115.102 E20.68302
G1 X72.376 Y115.102 E20.74503
G1 X72.263 Y115.064 E20.75098
G1 X71.265 Y114.338 E20.81255
G1 X71.192 Y114.239 E20.81869
G1 X70.802 Y113.04 E20.88159
G1 X70.808 Y112.937 E20.88674
G1 X71.192 Y111.761 E20.94846
G1 X71.265 Y111.662 E20.95459
G1 X72.263 Y110.936 E21.01616
G1 X72.381 Y110.898 E21.02235
G1 X73.627 Y110.898 E21.08451
G1 X73.737 Y110.936 E21.09032
G1 X74.735 Y111.662 E21.15189
G1 X74.808 Y111.761 E21.15803
G1 X75.192 Y112.937 E21.21974
G1 X75.192 Y113.063 E21.22603
G1 X74.808 Y114.239 E21.28775
G1 X74.735 Y114.338 E21.29389
G1 X73.737 Y115.064 E21.35546
G0 F7500 X73.619 Y115.102
G0 X73.542 Y115.102
G0 X73.973 Y115.388
;TYPE:WALL-INNER
G1 F1500 X73.723 Y115.494 E21.36901
G1 X73.13 Y115.502 E21.39859
G1 X72.366 Y115.502 E21.43671
G1 X72.082 Y115.423 E21.45142
G1 X72.027 Y115.388 E21.45467
G1 X71.03 Y114.662 E21.5162
G1 X70.883 Y114.51 E21.52675
G1 X70.699 Y114.014 E21.55314
G1 X70.428 Y113.187 E21.59656
G1 X70.401 Y112.941 E21.60891
G1 X70.428 Y112.813 E21.61543
G1 X70.812 Y111.637 E21.67715
G1 X71.029 Y111.338 E21.69558
G1 X72.028 Y110.612 E21.7572
G1 X72.234 Y110.516 E21.76853
G1 X72.768 Y110.498 E21.79519
G1 X73.641 Y110.498 E21.83874
G1 X73.913 Y110.574 E21.85283
G1 X73.972 Y110.612 E21.85634
G1 X74.971 Y111.338 E21.91795
G1 X75.164 Y111.576 E21.93323
G1 X75.188 Y111.637 E21.93651
G1 X75.572 Y112.813 E21.99822
G1 X75.597 Y113.071 E22.01116
G1 X75.572 Y113.187 E22.01708
G1 X75.188 Y114.363 E22.0788
G1 X75.112 Y114.517 E22.08736
G1 X74.971 Y114.662 E22.09745
G1 X73.973 Y115.388 E22.15903
G1 F1500 E15.65903
G0 F7500 X73.977 Y115.394
G0 X73.059 Y115.682
G0 X72.863 Y116.656
G0 X73.059 Y116.891
G1 F1500 E22.15903
G0 F7500 X73.022 Y117.3
;TYPE:WALL-OUTER
G1 F1500 X146.978 Y117.299 E25.84871
G1 X148.646 Y116.967 E25.93355
G1 X150.037 Y116.037 E26.01703
G1 X150.967 Y114.646 E26.10051
G1 X151.279 Y113.079 E26.18023
G1 X151.3 Y112.602 E26.20405
G1 X151.3 Y109.669 E26.35037
G1 X151.276 Y109.362 E26.36574
G1 X150.963 Y107.401 E26.46481
G1 X150.001 Y105.508 E26.57075
G1 X148.494 Y104.001 E26.67707
G1 X146.599 Y103.037 E26.78315
G1 X144.482 Y102.7 E26.89009
G1 X75.518 Y102.7 E30.33072
G1 X73.401 Y103.037 E30.43767
G1 X71.506 Y104.001 E30.54374
G1 X69.999 Y105.508 E30.65007
G1 X69.037 Y107.401 E30.75601
G1 X68.7 Y109.518 E30.86295
G1 X68.7 Y112.982 E31.03577
G1 X69.033 Y114.646 E31.12044
G1 X69.963 Y116.037 E31.20391
G1 X71.354 Y116.967 E31.28739
G1 X72.153 Y117.127 E31.32805
G1 X72.182 Y117.131 E31.32951
G1 X73.022 Y117.3 E31.37226
G0 F7500 X73.222 Y117.3
G0 X73.062 Y116.9
;TYPE:WALL-INNER
G1 F1500 X146.938 Y116.899 E35.05794
G1 X148.365 Y116.616 E35.13052
G1 X148.596 Y116.519 E35.14302
G1 X149.749 Y115.749 E35.21219
G1 X150.59 Y114.49 E35.28773
G1 X150.9 Y112.938 E35.36669
G1 X150.9 Y109.669 E35.52978
G1 X150.881 Y109.424 E35.54204
G1 X150.578 Y107.526 E35.63793
G1 X149.673 Y105.746 E35.73756
G1 X148.256 Y104.329 E35.83753
G1 X146.474 Y103.422 E35.93729
G1 X144.45 Y103.1 E36.03954
G1 X75.55 Y103.1 E39.47697
G1 X73.526 Y103.422 E39.57922
G1 X71.744 Y104.329 E39.67898
G1 X70.327 Y105.746 E39.77895
G1 X69.422 Y107.526 E39.87858
G1 X69.1 Y109.55 E39.98083
G1 X69.1 Y112.942 E40.15005
G1 X69.41 Y114.49 E40.22882
G1 X70.251 Y115.749 E40.30435
G1 X71.51 Y116.591 E40.37992
G1 X73.062 Y116.9 E40.45887
G1 F1500 E33.95887
G0 F7500 X73.062 Y116.89
G0 X95.476 Y117.07
G0 X95.128 Y112.701
G0 X95.476 Y112.395
G1 F1500 E40.45887
G0 F7500 X95.237 Y112.064
;TYPE:WALL-OUTER
G1 F1500 X95.119 Y112.102 E40.46505
G1 X93.881 Y112.102 E40.52682
G1 X93.763 Y112.064 E40.533
G1 X92.765 Y111.338 E40.59457
G1 X92.692 Y111.239 E40.60071
G1 X92.302 Y110.04 E40.66361
G1 X92.308 Y109.937 E40.66876
G1 X92.692 Y108.761 E40.73048
G1 X92.765 Y108.662 E40.73662
G1 X93.763 Y107.936 E40.79819
G1 X93.881 Y107.898 E40.80437
G1 X95.119 Y107.898 E40.86614
G1 X95.237 Y107.936 E40.87232
G1 X96.235 Y108.662 E40.93389
G1 X96.308 Y108.761 E40.94003
G1 X96.698 Y109.96 E41.00293
G1 X96.701 Y110.02 E41.00593
G1 X96.692 Y110.063 E41.00812
G1 X96.308 Y111.239 E41.06984
G1 X96.235 Y111.338 E41.07598
G1 X95.237 Y112.064 E41.13755
G0 F7500 X95.119 Y112.102
G0 X95.042 Y112.102
G0 X95.042 Y112.512
G0 X93.881 Y112.512
G0 X93.881 Y112.502
;TYPE:WALL-INNER
G1 F1500 X93.69 Y112.472 E41.14719
G1 X93.527 Y112.388 E41.15634
G1 X92.529 Y111.662 E41.21791
G1 X92.356 Y111.465 E41.23099
G1 X92.312 Y111.363 E41.23653
G1 X91.928 Y110.187 E41.29825
G1 X91.901 Y109.942 E41.31055
G1 X91.928 Y109.813 E41.31713
G1 X92.312 Y108.637 E41.37885
G1 X92.428 Y108.432 E41.3906
G1 X92.529 Y108.338 E41.39748
G1 X93.527 Y107.612 E41.45905
G1 X93.777 Y107.506 E41.4726
G1 X93.881 Y107.498 E41.4778
G1 X95.119 Y107.498 E41.53957
G1 X95.31 Y107.528 E41.54921
G1 X95.473 Y107.612 E41.55836
G1 X96.471 Y108.338 E41.61993
G1 X96.644 Y108.535 E41.63301
G1 X96.688 Y108.637 E41.63855
G1 X97.072 Y109.813 E41.70027
G1 X97.099 Y110.058 E41.71257
G1 X97.072 Y110.187 E41.71915
G1 X96.688 Y111.363 E41.78087
G1 X96.572 Y111.568 E41.79262
G1 X96.471 Y111.662 E41.7995
G1 X95.473 Y112.388 E41.86107
G1 X95.223 Y112.494 E41.87462
G1 X95.119 Y112.502 E41.87982
G1 X93.881 Y112.502 E41.94159
G1 F1500 E35.44159
G0 F7500 X93.881 Y112.512
G0 X95.296 Y112.45
G0 X96.576 Y111.809
G0 X123.424 Y111.809
G0 X124.881 Y112.512
G1 F1500 E41.94159
G0 F7500 X124.881 Y112.102
;TYPE:WALL-OUTER
G1 F1500 X124.763 Y112.064 E41.94777
G1 X123.765 Y111.338 E42.00934
G1 X123.692 Y111.239 E42.01548
G1 X123.302 Y110.04 E42.07838
G1 X123.308 Y109.937 E42.08353
G1 X123.692 Y108.761 E42.14525
G1 X123.765 Y108.662 E42.15139
G1 X124.763 Y107.936 E42.21296
G1 X124.881 Y107.898 E42.21914
G1 X126.119 Y107.898 E42.28091
G1 X126.237 Y107.936 E42.28709
G1 X127.235 Y108.662 E42.34866
G1 X127.308 Y108.761 E42.3548
G1 X127.698 Y109.96 E42.4177
G1 X127.692 Y110.063 E42.42285
G1 X127.308 Y111.239 E42.48457
G1 X127.235 Y111.338 E42.49071
G1 X126.237 Y112.064 E42.55228
G1 X126.119 Y112.102 E42.55846
G1 X124.881 Y112.102 E42.62023
G0 F7500 X124.763 Y112.064
G0 X124.701 Y112.019
G0 X124.881 Y112.502
;TYPE:WALL-INNER
G1 F1500 X124.69 Y112.472 E42.62987
G1 X124.527 Y112.388 E42.63902
G1 X123.529 Y111.662 E42.70059
G1 X123.356 Y111.465 E42.71367
G1 X123.312 Y111.363 E42.71921
G1 X122.928 Y110.187 E42.78093
G1 X122.901 Y109.942 E42.79323
G1 X122.928 Y109.813 E42.79981
G1 X123.312 Y108.637 E42.86153
G1 X123.428 Y108.432 E42.87328
G1 X123.529 Y108.338 E42.88016
G1 X124.527 Y107.612 E42.94173
G1 X124.777 Y107.506 E42.95528
G1 X124.881 Y107.498 E42.96048
G1 X126.119 Y107.498 E43.02225
G1 X126.31 Y107.528 E43.03189
G1 X126.473 Y107.612 E43.04104
G1 X127.471 Y108.338 E43.10261
G1 X127.644 Y108.535 E43.11569
G1 X127.688 Y108.637 E43.12123
G1 X128.072 Y109.813 E43.18295
G1 X128.099 Y110.058 E43.19525
G1 X128.072 Y110.187 E43.20183
G1 X127.688 Y111.363 E43.26355
G1 X127.572 Y111.568 E43.2753
G1 X127.471 Y111.662 E43.28218
G1 X126.473 Y112.388 E43.34375
G1 X126.223 Y112.494 E43.3573
G1 X126.119 Y112.502 E43.3625
G1 X124.881 Y112.502 E43.42427
G1 F1500 E36.92427
G0 F7500 X124.881 Y112.512
G0 X126.296 Y112.45
G0 X127.576 Y111.809
G0 X144.257 Y113.244
G0 X144.916 Y114.514
G0 X145.959 Y115.271
G0 X146.381 Y115.512
G1 F1500 E43.42427
G0 F7500 X146.381 Y115.102
;TYPE:WALL-OUTER
G1 F1500 X146.263 Y115.064 E43.43045
G1 X145.265 Y114.338 E43.49202
G1 X145.192 Y114.239 E43.49816
G1 X144.808 Y113.063 E43.55988
G1 X144.808 Y112.937 E43.56616
G1 X145.192 Y111.761 E43.62788
G1 X145.265 Y111.662 E43.63402
G1 X146.283 Y110.923 E43.69678
G1 X146.373 Y110.898 E43.70144
G1 X147.619 Y110.898 E43.7636
G1 X147.737 Y110.936 E43.76979
G1 X148.735 Y111.662 E43.83136
G1 X148.808 Y111.761 E43.8375
G1 X149.192 Y112.937 E43.89922
G1 X149.192 Y113.063 E43.9055
G1 X148.808 Y114.239 E43.96722
G1 X148.642 Y114.406 E43.97897
G1 X147.719 Y115.076 E44.03587
G1 X147.619 Y115.102 E44.04103
G1 X146.381 Y115.102 E44.10279
G0 F7500 X146.263 Y115.064
G0 X146.201 Y115.019
G0 X146.381 Y115.502
;TYPE:WALL-INNER
G1 F1500 X146.027 Y115.388 E44.12134
G1 X145.029 Y114.662 E44.18292
G1 X144.888 Y114.517 E44.19301
G1 X144.812 Y114.363 E44.20157
G1 X144.428 Y113.187 E44.26329
G1 X144.41 Y112.884 E44.27844
G1 X144.428 Y112.813 E44.28209
G1 X144.812 Y111.637 E44.34381
G1 X144.965 Y111.393 E44.35818
G1 X145.029 Y111.338 E44.36239
G1 X146.028 Y110.612 E44.424
G1 X146.232 Y110.516 E44.43525
G1 X146.359 Y110.498 E44.44165
G1 X147.619 Y110.498 E44.50451
G1 X147.766 Y110.516 E44.5119
G1 X147.973 Y110.612 E44.52328
G1 X148.971 Y111.338 E44.58485
G1 X149.188 Y111.637 E44.60328
G1 X149.572 Y112.813 E44.665
G1 X149.592 Y113.118 E44.68025
G1 X149.573 Y113.187 E44.68382
G1 X149.188 Y114.363 E44.74556
G1 X149.053 Y114.593 E44.75886
G1 X148.878 Y114.73 E44.76995
G1 X147.954 Y115.402 E44.82695
G1 X147.737 Y115.491 E44.83865
G1 X147.619 Y115.502 E44.84457
G1 X146.381 Y115.502 E44.90633
G0 F7500 X146.302 Y115.925
;TYPE:SKIN
G1 F1263.2 X145.867 Y115.705 E44.93521
G1 F1500 X145.811 Y115.676 E44.93836
G1 X144.82 Y114.954 E44.99953
G1 X144.614 Y114.747 E45.0141
G1 X144.478 Y114.494 E45.02843
G1 X144.467 Y114.468 E45.02984
G1 X144.085 Y113.301 E45.0911
G1 X144.044 Y113.08 E45.10231
G1 X144.055 Y112.816 E45.11549
G1 X144.061 Y112.791 E45.11678
G1 X144.469 Y111.527 E45.18304
G1 X144.583 Y111.298 E45.1958
G1 X144.792 Y111.072 E45.21116
G1 X144.821 Y111.046 E45.21311
G1 X145.823 Y110.316 E45.27495
G1 X145.955 Y110.242 E45.2825
G1 X146.305 Y110.145 E45.30062
G1 X146.358 Y110.138 E45.30329
G1 X147.241 Y110.137 E45.34734
G1 X147.815 Y110.161 E45.37601
G1 X148.15 Y110.299 E45.39408
G1 X148.184 Y110.319 E45.39605
G1 X149.177 Y111.043 E45.45736
G1 X149.504 Y111.476 E45.48443
G1 X149.532 Y111.531 E45.48751
G1 F1467 X149.636 Y111.819 E45.50313
G1 F1405.2 X149.74 Y112.107 E45.51944
G1 F1348.3 X149.844 Y112.395 E45.53643
G1 F1295.9 X149.948 Y112.683 E45.55412
G1 F1229.5 X149.984 Y112.886 E45.56666
G1 F1242.2 X149.976 Y113.196 E45.58535
G1 F1295.9 X149.97 Y113.222 E45.58689
G1 F1268.5 X149.881 Y113.529 E45.60574
G1 F1219.5 X149.791 Y113.836 E45.62538
G1 F1176.5 X149.702 Y114.144 E45.64577
G1 F1192.8 X149.582 Y114.413 E45.66425
G1 F1279.3 X149.462 Y114.682 E45.68148
G1 F1295.9 X149.232 Y114.96 E45.70232
