;FLAVOR:Marlin
;TIME:31762
;Filament used: 22.9175m
;Layer height: 0.2
;MINX:54.8
;MINY:64.8
;MINZ:0.3
;MAXX:165.2
;MAXY:155.2
;MAXZ:42.9
;Generated with Cura_SteamEngine 4.10.0
M140 S60
M105
M190 S60
M104 S200
M105
M109 S200
M82 ;absolute extrusion mode
G28 ;Home
G1 Z15.0 F2000 ;Move the platform
G92 E0
G92 E0
G1 F1500 E-6.5
;LAYER_COUNT:215
;LAYER:0
M107
M204 S1000
G0 F7500 X57.949 Y67.095 Z0.3
;TYPE:SKIRT
G1 F1500 E0
G1 X58.456 Y66.677 E0.03278
G1 X58.746 Y66.464 E0.05073
G1 X59.004 Y66.296 E0.06609
G1 X59.124 Y66.222 E0.07313
G1 X59.658 Y65.907 E0.10406
G1 X60.008 Y65.726 E0.12372
G1 X60.269 Y65.61 E0.13797
G1 X60.387 Y65.56 E0.14436
G1 X60.963 Y65.331 E0.17528
G1 X61.302 Y65.218 E0.19311
G1 X61.595 Y65.138 E0.20827
G1 X61.733 Y65.104 E0.21536
G1 X62.357 Y64.963 E0.24727
G1 X62.714 Y64.903 E0.26533
G1 X63.016 Y64.87 E0.28049
G1 X63.16 Y64.857 E0.2877
G1 X63.803 Y64.816 E0.31985
G1 X64.138 Y64.804 E0.33657
G1 X64.535 Y64.8 E0.35638
G1 X155.348 Y64.801 E4.88706
G1 X156.055 Y64.811 E4.92233
G1 X156.357 Y64.824 E4.93741
G1 X156.719 Y64.85 E4.95552
G1 X157.267 Y64.903 E4.98299
G1 X157.622 Y64.957 E5.0009
G1 X157.91 Y65.018 E5.01559
G1 X158.045 Y65.05 E5.02251
G1 X158.655 Y65.207 E5.05394
G1 X158.994 Y65.315 E5.07169
G1 X159.278 Y65.423 E5.08685
G1 X159.413 Y65.478 E5.09412
G1 X160.004 Y65.734 E5.12625
G1 X160.327 Y65.896 E5.14428
G1 X160.574 Y66.038 E5.15849
G1 X160.689 Y66.107 E5.16518
G1 X161.23 Y66.449 E5.19712
G1 X161.527 Y66.661 E5.21532
G1 X161.768 Y66.855 E5.23076
G1 X161.871 Y66.942 E5.23748
G1 X162.351 Y67.363 E5.26934
G1 X162.619 Y67.628 E5.28814
G1 X162.809 Y67.839 E5.3023
G1 X162.897 Y67.941 E5.30903
G1 X163.317 Y68.449 E5.34191
G1 X163.528 Y68.735 E5.35964
G1 X163.697 Y68.993 E5.37503
G1 X163.778 Y69.123 E5.38267
G1 X164.107 Y69.682 E5.41503
G1 X164.272 Y70.003 E5.43304
G1 X164.44 Y70.385 E5.45386
G1 X164.668 Y70.957 E5.48458
G1 X164.784 Y71.307 E5.50297
G1 X164.864 Y71.603 E5.51827
G1 X164.896 Y71.733 E5.52495
G1 X165.037 Y72.357 E5.55687
G1 X165.097 Y72.714 E5.57493
G1 X165.13 Y73.016 E5.59008
G1 X165.142 Y73.16 E5.59729
G1 X165.187 Y73.867 E5.63264
G1 X165.196 Y74.138 E5.64616
G1 X165.2 Y74.535 E5.66597
G1 X165.199 Y145.349 E9.1989
G1 X165.187 Y146.116 E9.23717
G1 X165.176 Y146.357 E9.2492
G1 X165.151 Y146.714 E9.26706
G1 X165.1 Y147.25 E9.29392
G1 X165.046 Y147.605 E9.31183
G1 X164.983 Y147.905 E9.32713
G1 X164.95 Y148.045 E9.3343
G1 X164.794 Y148.651 E9.36552
G1 X164.688 Y148.986 E9.38305
G1 X164.579 Y149.274 E9.39842
G1 X164.523 Y149.411 E9.4058
G1 X164.268 Y150.001 E9.43787
G1 X164.104 Y150.328 E9.45612
G1 X163.96 Y150.578 E9.47051
G1 X163.893 Y150.689 E9.47698
G1 X163.554 Y151.226 E9.50866
G1 X163.343 Y151.522 E9.5268
G1 X163.143 Y151.771 E9.54273
G1 X163.051 Y151.881 E9.54989
G1 X162.634 Y152.355 E9.58138
G1 X162.375 Y152.616 E9.59973
G1 X162.159 Y152.811 E9.61425
G1 X162.051 Y152.905 E9.62139
G1 X161.549 Y153.319 E9.65385
G1 X161.264 Y153.528 E9.67148
G1 X161.001 Y153.7 E9.68716
G1 X160.879 Y153.776 E9.69433
G1 X160.348 Y154.09 E9.72511
G1 X160 Y154.27 E9.74466
G1 X159.736 Y154.388 E9.75908
G1 X159.613 Y154.44 E9.76575
G1 X159.04 Y154.668 E9.79651
G1 X158.695 Y154.783 E9.81466
G1 X158.4 Y154.863 E9.8299
G1 X158.267 Y154.896 E9.83674
G1 X157.643 Y155.037 E9.86866
G1 X157.286 Y155.097 E9.88672
G1 X156.984 Y155.13 E9.90188
G1 X156.84 Y155.143 E9.90909
G1 X156.197 Y155.184 E9.94123
G1 X155.862 Y155.196 E9.95796
G1 X155.465 Y155.2 E9.97776
G1 X64.652 Y155.199 E14.50844
G1 X63.945 Y155.189 E14.54372
G1 X63.643 Y155.176 E14.5588
G1 X63.281 Y155.15 E14.57691
G1 X62.733 Y155.097 E14.60437
G1 X62.378 Y155.043 E14.62229
G1 X62.09 Y154.982 E14.63698
G1 X61.955 Y154.95 E14.6439
G1 X61.345 Y154.793 E14.67532
G1 X61.006 Y154.685 E14.69307
G1 X60.722 Y154.577 E14.70823
G1 X60.587 Y154.522 E14.7155
G1 X59.994 Y154.265 E14.74775
G1 X59.671 Y154.103 E14.76578
G1 X59.424 Y153.961 E14.77999
G1 X59.308 Y153.891 E14.78675
G1 X58.769 Y153.55 E14.81857
G1 X58.474 Y153.339 E14.83666
G1 X58.228 Y153.141 E14.85242
G1 X58.119 Y153.05 E14.8595
G1 X57.642 Y152.63 E14.89121
G1 X57.378 Y152.369 E14.90973
G1 X57.171 Y152.139 E14.92517
G1 X57.081 Y152.034 E14.93207
G1 X56.681 Y151.549 E14.96343
G1 X56.473 Y151.267 E14.98092
G1 X56.3 Y151.003 E14.99666
G1 X56.218 Y150.87 E15.00446
G1 X55.892 Y150.315 E15.03657
G1 X55.726 Y149.993 E15.05464
G1 X55.607 Y149.725 E15.06927
G1 X55.556 Y149.603 E15.07587
G1 X55.325 Y149.019 E15.1072
G1 X55.211 Y148.673 E15.12538
G1 X55.136 Y148.394 E15.13979
G1 X55.105 Y148.269 E15.14622
G1 X54.963 Y147.641 E15.17834
G1 X54.903 Y147.286 E15.1963
G1 X54.87 Y146.987 E15.21131
G1 X54.857 Y146.84 E15.21867
G1 X54.816 Y146.197 E15.25082
G1 X54.804 Y145.862 E15.26754
G1 X54.8 Y145.465 E15.28735
G1 X54.801 Y74.652 E18.82022
G1 X54.811 Y73.944 E18.85555
G1 X54.824 Y73.643 E18.87058
G1 X54.85 Y73.281 E18.88869
G1 X54.903 Y72.733 E18.91615
G1 X54.957 Y72.378 E18.93407
G1 X55.018 Y72.09 E18.94876
G1 X55.05 Y71.955 E18.95568
G1 X55.207 Y71.345 E18.9871
G1 X55.315 Y71.006 E19.00485
G1 X55.423 Y70.722 E19.02001
G1 X55.478 Y70.587 E19.02728
G1 X55.734 Y69.996 E19.05942
G1 X55.895 Y69.674 E19.07738
G1 X56.038 Y69.425 E19.0917
G1 X56.108 Y69.31 E19.09842
G1 X56.451 Y68.767 E19.13046
G1 X56.669 Y68.462 E19.14917
G1 X56.865 Y68.22 E19.1647
G1 X56.95 Y68.12 E19.17125
G1 X57.369 Y67.644 E19.20289
G1 X57.622 Y67.387 E19.22088
G1 X57.836 Y67.193 E19.23529
G1 X57.949 Y67.095 E19.24275
G1 F1500 E12.74275
;MESH:project_box_bottom.stl
G0 F7500 X60.003 Y68.676
G0 X60.959 Y69.799
G0 X60.309 Y70.3
G0 X59.772 Y70.926
G0 X59.349 Y71.618
G0 X59.026 Y72.393
G0 X58.84 Y73.172
G0 X58.772 Y74.009
G0 X58.771 Y145.979
G0 X58.838 Y146.819
G0 X59.027 Y147.61
G0 X59.34 Y148.366
G0 X59.767 Y149.064
G0 X60.3 Y149.691
G0 X60.926 Y150.228
G0 X61.618 Y150.651
G0 X62.393 Y150.974
G0 X63.172 Y151.16
G0 X63.65 Y151.197
G0 X155.978 Y151.4
;TYPE:WALL-INNER
G1 F1500 E19.24275
G1 X64.013 Y151.399 E23.8309
G1 X63.144 Y151.329 E23.8744
G1 X62.337 Y151.135 E23.91581
G1 X61.541 Y150.804 E23.95882
G1 X60.826 Y150.367 E24.00062
G1 X60.178 Y149.811 E24.04322
G1 X59.63 Y149.167 E24.08541
G1 X59.187 Y148.442 E24.1278
G1 X58.865 Y147.663 E24.16985
G1 X58.669 Y146.847 E24.21172
G1 X58.6 Y145.978 E24.25521
G1 X58.601 Y74.01 E27.84571
G1 X58.671 Y73.144 E27.88905
G1 X58.865 Y72.337 E27.93046
G1 X59.196 Y71.541 E27.97347
G1 X59.633 Y70.826 E28.01528
G1 X60.189 Y70.178 E28.05788
G1 X60.833 Y69.63 E28.10006
G1 X61.558 Y69.187 E28.14245
G1 X62.337 Y68.865 E28.18451
G1 X63.153 Y68.669 E28.22637
G1 X64.022 Y68.6 E28.26987
G1 X155.987 Y68.601 E32.85802
G1 X156.856 Y68.671 E32.90151
G1 X157.663 Y68.865 E32.94292
G1 X158.459 Y69.196 E32.98593
G1 X159.174 Y69.633 E33.02774
G1 X159.822 Y70.189 E33.07034
G1 X160.37 Y70.833 E33.11252
G1 X160.813 Y71.558 E33.15491
G1 X161.135 Y72.337 E33.19696
G1 X161.331 Y73.153 E33.23883
G1 X161.4 Y74.019 E33.28217
G1 X161.399 Y145.99 E36.87282
G1 X161.329 Y146.856 E36.91617
G1 X161.135 Y147.666 E36.95772
G1 X160.807 Y148.454 E37.00031
G1 X160.367 Y149.174 E37.0424
G1 X159.812 Y149.821 E37.08493
G1 X159.167 Y150.37 E37.12719
G1 X158.442 Y150.813 E37.16958
G1 X157.663 Y151.135 E37.21163
G1 X156.847 Y151.331 E37.2535
G1 X155.978 Y151.4 E37.29699
G0 F7500 X155.997 Y151.8
;TYPE:WALL-OUTER
G1 F1500 X63.993 Y151.799 E41.88709
G1 X63.083 Y151.726 E41.93263
G1 X62.213 Y151.517 E41.97727
G1 X61.358 Y151.161 E42.02348
G1 X60.59 Y150.691 E42.0684
G1 X59.893 Y150.094 E42.11419
G1 X59.304 Y149.402 E42.15952
G1 X58.829 Y148.623 E42.20504
G1 X58.484 Y147.79 E42.25002
G1 X58.272 Y146.908 E42.29528
G1 X58.2 Y146 E42.34072
G1 X58.201 Y73.99 E45.93332
G1 X58.274 Y73.083 E45.97871
G1 X58.483 Y72.213 E46.02335
G1 X58.839 Y71.358 E46.06956
G1 X59.309 Y70.59 E46.11448
G1 X59.906 Y69.893 E46.16026
G1 X60.598 Y69.304 E46.2056
G1 X61.377 Y68.829 E46.25112
G1 X62.21 Y68.484 E46.2961
G1 X63.092 Y68.272 E46.34136
G1 X64.003 Y68.2 E46.38695
G1 X156.007 Y68.201 E50.97705
G1 X156.917 Y68.274 E51.0226
G1 X157.787 Y68.483 E51.06723
G1 X158.642 Y68.839 E51.11344
G1 X159.41 Y69.309 E51.15836
G1 X160.107 Y69.906 E51.20415
G1 X160.696 Y70.598 E51.24948
G1 X161.171 Y71.377 E51.295
G1 X161.516 Y72.21 E51.33999
G1 X161.728 Y73.092 E51.38524
G1 X161.8 Y74 E51.43068
G1 X161.799 Y146.01 E55.02328
G1 X161.726 Y146.917 E55.06867
G1 X161.517 Y147.787 E55.11331
G1 X161.163 Y148.639 E55.15934
G1 X160.691 Y149.41 E55.20444
G1 X160.095 Y150.106 E55.25016
G1 X159.402 Y150.696 E55.29557
G1 X158.623 Y151.171 E55.34109
G1 X157.79 Y151.516 E55.38607
G1 X156.908 Y151.728 E55.43132
G1 X155.997 Y151.8 E55.47692
G0 F7500 X155.797 Y151.8
G0 X155.798 Y151.36
G0 X155.973 Y151.01
;TYPE:SKIN
G1 F1500 X64.02 Y151.009 E60.06447
G1 X63.209 Y150.944 E60.10506
G1 X62.46 Y150.764 E60.14349
G1 X61.719 Y150.455 E60.18355
G1 X61.056 Y150.051 E60.22228
G1 X60.456 Y149.535 E60.26176
G1 X59.946 Y148.937 E60.30097
G1 X59.536 Y148.265 E60.34025
G1 X59.236 Y147.54 E60.37939
G1 X59.054 Y146.781 E60.41833
G1 X58.99 Y145.978 E60.45852
G1 X58.991 Y74.01 E64.04902
G1 X59.056 Y73.209 E64.08911
G1 X59.236 Y72.46 E64.12754
G1 X59.545 Y71.719 E64.1676
G1 X59.949 Y71.056 E64.20633
G1 X60.466 Y70.455 E64.24588
G1 X61.063 Y69.946 E64.28502
G1 X61.735 Y69.536 E64.3243
G1 X62.46 Y69.236 E64.36344
G1 X63.217 Y69.055 E64.40227
G1 X64.027 Y68.99 E64.44281
G1 X155.98 Y68.991 E69.03037
G1 X156.791 Y69.056 E69.07096
G1 X157.54 Y69.236 E69.10939
G1 X158.281 Y69.545 E69.14944
G1 X158.944 Y69.949 E69.18818
G1 X159.543 Y70.464 E69.22759
G1 X160.054 Y71.063 E69.26687
G1 X160.464 Y71.735 E69.30614
G1 X160.764 Y72.46 E69.34529
G1 X160.945 Y73.218 E69.38417
G1 X161.01 Y74.019 E69.42426
G1 X161.009 Y145.99 E73.01491
G1 X160.944 Y146.791 E73.055
G1 X160.764 Y147.543 E73.09358
G1 X160.458 Y148.276 E73.13321
G1 X160.051 Y148.944 E73.17223
G1 X159.536 Y149.543 E73.21165
G1 X158.937 Y150.054 E73.25093
G1 X158.265 Y150.464 E73.2902
G1 X157.54 Y150.764 E73.32935
G1 X156.783 Y150.945 E73.36818
G1 X155.973 Y151.01 E73.40872
G1 F1500 E66.90872
G0 F7500 X155.972 Y151.289
G0 X157.61 Y150.973
G0 X158.366 Y150.66
G0 X159.064 Y150.233
G0 X159.692 Y149.699
G0 X160.228 Y149.074
G0 X160.654 Y148.377
G0 X160.973 Y147.61
G0 X161.16 Y146.828
G0 X161.228 Y145.991
G0 X161.229 Y74.018
G0 X161.162 Y73.181
G0 X160.973 Y72.39
G0 X160.72 Y71.778
G0 X159.987 Y70.554
G0 X159.651 Y70.838
G1 F1500 E73.40872
G1 X159.154 Y70.342 E73.44375
G0 F7500 X159.442 Y70.009
G0 X157.91 Y69.088
G0 X157.741 Y69.494
G1 F1500 X160.506 Y72.259 E73.63883
G0 F7500 X160.743 Y73.061
G1 F1500 X156.936 Y69.255 E73.9074
G0 F7500 X156.292 Y69.176
G1 F1500 X160.825 Y73.709 E74.22723
G0 F7500 X160.849 Y74.299
G1 F1500 X155.701 Y69.151 E74.59045
G0 F7500 X155.135 Y69.151
G1 F1500 X160.849 Y74.865 E74.9936
G0 F7500 X160.849 Y75.431
G1 F1500 X154.57 Y69.151 E75.43666
G0 F7500 X154.004 Y69.151
G1 F1500 X160.849 Y75.997 E75.91964
G0 F7500 X160.849 Y76.562
G1 F1500 X153.438 Y69.151 E76.44253
G0 F7500 X152.872 Y69.151
G1 F1500 X160.849 Y77.128 E77.00535
G0 F7500 X160.849 Y77.694
G1 F1500 X152.307 Y69.151 E77.60807
G0 F7500 X151.741 Y69.151
G1 F1500 X160.849 Y78.259 E78.25069
G0 F7500 X160.849 Y78.825
G1 F1500 X151.175 Y69.151 E78.93324
G0 F7500 X150.61 Y69.151
G1 F1500 X160.849 Y79.391 E79.65569
G0 F7500 X160.849 Y79.956
G1 F1500 X150.044 Y69.151 E80.41804
G0 F7500 X149.478 Y69.151
G1 F1500 X160.849 Y80.522 E81.22033
G0 F7500 X160.849 Y81.088
G1 F1500 X148.913 Y69.151 E82.06251
G0 F7500 X148.347 Y69.151
G1 F1500 X160.849 Y81.653 E82.9446
G0 F7500 X160.849 Y82.219
G1 F1500 X147.781 Y69.151 E83.86662
G0 F7500 X147.216 Y69.151
G1 F1500 X160.849 Y82.785 E84.82853
G0 F7500 X160.849 Y83.35
G1 F1500 X146.65 Y69.151 E85.83035
G0 F7500 X146.084 Y69.151
G1 F1500 X160.849 Y83.916 E86.8721
G0 F7500 X160.849 Y84.482
G1 F1500 X145.519 Y69.151 E87.95375
G0 F7500 X144.953 Y69.151
G1 F1500 X160.849 Y85.047 E89.0753
G0 F7500 X160.849 Y85.613
G1 F1500 X144.387 Y69.151 E90.23678
G0 F7500 X143.821 Y69.151
G1 F1500 X160.849 Y86.179 E91.4382
G0 F7500 X160.849 Y86.745
G1 F1500 X143.256 Y69.151 E92.67951
G0 F7500 X142.69 Y69.151
G1 F1500 X160.849 Y87.31 E93.96073
G0 F7500 X160.849 Y87.876
G1 F1500 X142.124 Y69.151 E95.28188
G0 F7500 X141.559 Y69.151
G1 F1500 X160.849 Y88.442 E96.64293
G0 F7500 X160.849 Y89.007
G1 F1500 X140.993 Y69.151 E98.04388
G0 F7500 X140.427 Y69.151
G1 F1500 X160.849 Y89.573 E99.48476
G0 F7500 X160.849 Y90.139
G1 F1500 X139.862 Y69.151 E100.96554
G0 F7500 X139.296 Y69.151
G1 F1500 X160.849 Y90.704 E102.48622
G0 F7500 X160.849 Y91.27
G1 F1500 X138.73 Y69.151 E104.04684
G0 F7500 X138.165 Y69.151
G1 F1500 X160.849 Y91.836 E105.64735
G0 F7500 X160.849 Y92.401
G1 F1500 X137.599 Y69.151 E107.28776
G0 F7500 X137.033 Y69.151
G1 F1500 X160.849 Y92.967 E108.96811
G0 F7500 X160.849 Y93.533
G1 F1500 X136.468 Y69.151 E110.68836
G0 F7500 X135.902 Y69.151
G1 F1500 X160.849 Y94.098 E112.4485
G0 F7500 X160.849 Y94.664
G1 F1500 X135.336 Y69.151 E114.24858
G0 F7500 X134.771 Y69.151
G1 F1500 X160.849 Y95.23 E116.08856
G0 F7500 X160.849 Y95.795
G1 F1500 X134.205 Y69.151 E117.96844
G0 F7500 X133.639 Y69.151
G1 F1500 X160.849 Y96.361 E119.88825
G0 F7500 X160.849 Y96.927
G1 F1500 X133.073 Y69.151 E121.848
G0 F7500 X132.508 Y69.151
G1 F1500 X160.849 Y97.493 E123.84765
G0 F7500 X160.849 Y98.058
G1 F1500 X131.942 Y69.151 E125.88719
G0 F7500 X131.376 Y69.151
G1 F1500 X160.849 Y98.624 E127.96667
G0 F7500 X160.849 Y99.19
G1 F1500 X130.811 Y69.151 E130.08605
G0 F7500 X130.245 Y69.151
G1 F1500 X160.849 Y99.755 E132.24533
G0 F7500 X160.849 Y100.321
G1 F1500 X129.679 Y69.151 E134.44454
G0 F7500 X129.114 Y69.151
G1 F1500 X160.849 Y100.887 E136.68365
G0 F7500 X160.849 Y101.452
G1 F1500 X128.548 Y69.151 E138.96266
G0 F7500 X127.982 Y69.151
G1 F1500 X160.849 Y102.018 E141.2816
G0 F7500 X160.849 Y102.584
G1 F1500 X127.417 Y69.151 E143.64045
G0 F7500 X126.851 Y69.151
G1 F1500 X160.849 Y103.149 E146.03919
G0 F7500 X160.849 Y103.715
G1 F1500 X126.285 Y69.151 E148.47787
G0 F7500 X125.72 Y69.151
G1 F1500 X160.849 Y104.281 E150.95644
G0 F7500 X160.849 Y104.846
G1 F1500 X125.153 Y69.15 E153.47499
G0 F7500 X124.587 Y69.15
G1 F1500 X160.849 Y105.412 E156.03347
G0 F7500 X160.849 Y105.978
G1 F1500 X124.022 Y69.15 E158.63185
G0 F7500 X123.456 Y69.15
G1 F1500 X160.849 Y106.544 E161.27016
G0 F7500 X160.849 Y107.109
G1 F1500 X122.89 Y69.15 E163.94837
G0 F7500 X122.325 Y69.15
G1 F1500 X160.849 Y107.675 E166.66648
G0 F7500 X160.849 Y108.241
G1 F1500 X121.759 Y69.15 E169.42453
G0 F7500 X121.193 Y69.15
G1 F1500 X160.849 Y108.806 E172.22247
G0 F7500 X160.849 Y109.372
G1 F1500 X120.628 Y69.15 E175.06032
G0 F7500 X120.062 Y69.15
G1 F1500 X160.849 Y109.938 E177.9381
G0 F7500 X160.849 Y110.503
G1 F1500 X119.496 Y69.15 E180.85577
G0 F7500 X118.931 Y69.15
G1 F1500 X160.849 Y111.068 E183.81332
G0 F7500 X160.849 Y111.634
G1 F1500 X118.365 Y69.15 E186.81079
G0 F7500 X117.799 Y69.15
G1 F1500 X160.849 Y112.2 E189.8482
G0 F7500 X160.849 Y112.765
G1 F1500 X117.234 Y69.15 E192.92547
G0 F7500 X116.668 Y69.15
G1 F1500 X160.849 Y113.331 E196.04268
G0 F7500 X160.849 Y113.897
G1 F1500 X116.102 Y69.15 E199.19983
G0 F7500 X115.537 Y69.15
G1 F1500 X160.849 Y114.462 E202.39683
G0 F7500 X160.849 Y115.028
G1 F1500 X114.971 Y69.15 E205.63377
G0 F7500 X114.405 Y69.15
G1 F1500 X160.849 Y115.594 E208.91065
G0 F7500 X160.849 Y116.159
G1 F1500 X113.839 Y69.15 E212.22742
G0 F7500 X113.274 Y69.15
G1 F1500 X160.849 Y116.725 E215.5841
G0 F7500 X160.849 Y117.291
G1 F1500 X112.708 Y69.15 E218.9807
G0 F7500 X112.142 Y69.15
G1 F1500 X160.849 Y117.857 E222.41724
G0 F7500 X160.849 Y118.422
G1 F1500 X111.577 Y69.15 E225.89365
G0 F7500 X111.011 Y69.15
G1 F1500 X160.849 Y118.988 E229.40999
G0 F7500 X160.849 Y119.554
G1 F1500 X110.445 Y69.15 E232.96626
G0 F7500 X109.88 Y69.15
G1 F1500 X160.849 Y120.119 E236.5624
G0 F7500 X160.849 Y120.685
G1 F1500 X109.314 Y69.15 E240.19848
G0 F7500 X108.748 Y69.15
G1 F1500 X160.849 Y121.251 E243.87448
G0 F7500 X160.849 Y121.816
G1 F1500 X108.183 Y69.15 E247.59035
G0 F7500 X107.617 Y69.15
G1 F1500 X160.849 Y122.382 E251.34616
G0 F7500 X160.849 Y122.948
G1 F1500 X107.051 Y69.15 E255.1419
G0 F7500 X106.486 Y69.15
G1 F1500 X160.849 Y123.513 E258.9775
